assets/img/braze_icons/coins-01.svg

<svg fill="none" height="24" viewBox="0 0 24 24" width="24" xmlns="http://www.w3.org/2000/svg"><g fill="#801ed7"><path d="m7.20269 7.2027c-3.55283.8156-6.20269 3.997-6.20269 7.7973 0 4.4183 3.58172 8 8 8 3.8003 0 6.9817-2.6499 7.7973-6.2027.1326-.5777.2027-1.1793.2027-1.7973 0-4.4183-3.5817-8-8-8-.61797 0-1.21958.07007-1.79731.2027z"/><path d="m8.04438 5.04507c.31452-.02982.63329-.04507.95562-.04507 5.5228 0 10 4.47715 10 10 0 .3223-.0153.6411-.0451.9556 2.4161-1.3767 4.0451-3.9759 4.0451-6.9556 0-4.41828-3.5817-8-8-8-2.9797 0-5.57891 1.62903-6.95562 4.04507z"/></g></svg>

<svg width="24" height="24" viewBox="0 0 24 24" fill="none" xmlns="http://www.w3.org/2000/svg">
<path d="M7.20269 7.2027C3.64986 8.0183 1 11.1997 1 15C1 19.4183 4.58172 23 9 23C12.8003 23 15.9817 20.3501 16.7973 16.7973C16.9299 16.2196 17 15.618 17 15C17 10.5817 13.4183 7 9 7C8.38203 7 7.78042 7.07007 7.20269 7.2027Z" fill="#801ED7"/>
<path d="M8.04438 5.04507C8.3589 5.01525 8.67767 5 9 5C14.5228 5 19 9.47715 19 15C19 15.3223 18.9847 15.6411 18.9549 15.9556C21.371 14.5789 23 11.9797 23 9C23 4.58172 19.4183 1 15 1C12.0203 1 9.42109 2.62903 8.04438 5.04507Z" fill="#801ED7"/>
</svg>
